X: 248
T:O domine Jesu Christe / adoro te in cruce vulneratum / adoro te in sepulcro positum / pastor bone / propter illam amaritudinem
N: Derived from Jos2201-O_Domine_Jesu_Christe.krn
C: Josquin des Prez
%%abc-version 2.0
%%abcx-abcm2ps-target-version 5.9.1 (29 Sep 2008)
%%abc-creator hum2abc beta
%%abcx-conversion-date 2019/02/12 16:15:51
%%abc-edited-by Jesse Rodin
%%abc-edited-by Jesse Rodin; Victoria Chang 2011/05/25
%%abcx-initial-encoding-date 2011/05/25/
%%humdrum-veritas 740261507
%%humdrum-veritas-data 1322611223
%%linebreak <none>
%%barnumbers 0
L: 1/4
M: 2/1
Q: 1/2=120
%%staves [1 2 3 4]
V: 1 clef=treble
V: 2 clef=treble-8
V: 3 clef=treble-8
V: 4 clef=bass
K: C
[V:1] D8- | 
[V:2] A8- | 
[V:3] D8- | 
[V:4] D,8- | 
[V:1] D8 | 
[V:2] A8 | 
[V:3] D8 | 
[V:4] D,8- | 
[V:1] F8- | 
[V:2] F8- | 
[V:3] A8- | 
[V:4] D,8- | 
[V:1] F8 | 
[V:2] F8 | 
[V:3] A8 | 
[V:4] D,8 | 
[V:1] E8- | 
[V:2] G8- | 
[V:3] c8- | 
[V:4] C,8- | 
[V:1] E4E4 | 
[V:2] G4G4 | 
[V:3] c4c4 | 
[V:4] C,4C,4 | 
[V:1] !fermata!E8 | 
[V:2] !fermata!G8 | 
[V:3] !fermata!c8 | 
[V:4] !fermata!C,8 | 
[V:1] F8 | 
[V:2] F8 | 
[V:3] A6B2 | 
[V:4] D,8 | 
[V:1] E4F4- | 
[V:2] G4F4 | 
[V:3] c4A4 | 
[V:4] C,4D,4 | 
[V:1] F4E2D2 | 
[V:2] D8 | 
[V:3] d8 | 
[V:4] _B,,8 | 
[V:1] E8 | 
[V:2] A8- | 
[V:3] c6B2 | 
[V:4] A,,8- | 
[V:1] E8 | 
[V:2] A4B4 | 
[V:3] A4G2F2 | 
[V:4] A,,8- | 
[V:1] z8 | 
[V:2] c8 | 
[V:3] E8 | 
[V:4] A,,8 | 
[V:1] C8 | 
[V:2] A8 | 
[V:3] e8 | 
[V:4] [A,,8A,8] | 
[V:1] E4F4 | 
[V:2] c4d4 | 
[V:3] c4A4 | 
[V:4] A,4F,4 | 
[V:1] G8 | 
[V:2] e8 | 
[V:3] B8 | 
[V:4] E,8 | 
[V:1] A8- | 
[V:2] c4d4 | 
[V:3] A8 | 
[V:4] A,,4D,4- | 
[V:1] A8- | 
[V:2] A8- | 
[V:3] d4c4 | 
[V:4] D,4A,,4 | 
[V:1] A8 | 
[V:2] A8 | 
[V:3] d4e4 | 
[V:4] D,4C,4 | 
[V:1] z4D4- | 
[V:2] A8 | 
[V:3] f8 | 
[V:4] D,8 | 
[V:1] D4C4 | 
[V:2] A4A4 | 
[V:3] e8 | 
[V:4] A,,8 | 
[V:1] D4E4 | 
[V:2] _B4A4 | 
[V:3] d4c4 | 
[V:4] z4A,,4 | 
[V:1] F8 | 
[V:2] F8 | 
[V:3] A6B2 | 
[V:4] D,8 | 
[V:1] E8- | 
[V:2] G8 | 
[V:3] c4B2A2 | 
[V:4] C,8- | 
[V:1] E8 | 
[V:2] c8 | 
[V:3] G8 | 
[V:4] C,8 | 
[V:1] A8 | 
[V:2] c8 | 
[V:3] F4A4- | 
[V:4] F,8 | 
[V:1] A4A4- | 
[V:2] c4d4- | 
[V:3] A4A4 | 
[V:4] F,4D,4- | 
[V:1] A4A4 | 
[V:2] d4d4 | 
[V:3] A4A4 | 
[V:4] D,4F,4 | 
[V:1] G8- | 
[V:2] e8- | 
[V:3] B8- | 
[V:4] E,8 | 
[V:1] G4G4 | 
[V:2] e4e4 | 
[V:3] B4c4 | 
[V:4] E,4C,4 | 
[V:1] G8 | 
[V:2] e8 | 
[V:3] c8 | 
[V:4] C,8 | 
[V:1] F8 | 
[V:2] A8 | 
[V:3] z4F4 | 
[V:4] D,8 | 
[V:1] F4E4 | 
[V:2] A4A4 | 
[V:3] D4E4 | 
[V:4] D,4C,4 | 
[V:1] D4C4 | 
[V:2] A8 | 
[V:3] F4E4 | 
[V:4] D,4A,,4 | 
[V:1] D8- | 
[V:2] D6E2 | 
[V:3] G4F4 | 
[V:4] _B,,8- | 
[V:1] D8 | 
[V:2] F4G4 | 
[V:3] D8 | 
[V:4] B,,8 | 
[V:1] C8- | 
[V:2] A6G2 | 
[V:3] E8 | 
[V:4] A,,8- | 
[V:1] C8 | 
[V:2] E4F4 | 
[V:3] A8- | 
[V:4] A,,4F,,4 | 
[V:1] z8 | 
[V:2] C4F4 | 
[V:3] A8 | 
[V:4] F,,8 | 
[V:1] E8- | 
[V:2] z4E4- | 
[V:3] G8- | 
[V:4] C,8- | 
[V:1] E4E4 | 
[V:2] E4E4 | 
[V:3] G4G4 | 
[V:4] C,4C,4 | 
[V:1]  [K:F] C8 | 
[V:2]  [K:F] E8 | 
[V:3]  [K:F] A6=B2 | 
[V:4]  [K:F] A,,6F,,2 | 
[V:1] !fermata!A,8 | 
[V:2] !fermata!F8 | 
[V:3] !fermata!c8 | 
[V:4] !fermata!F,,8 | 
[V:1] A,4D4- | 
[V:2] F4D4 | 
[V:3] F8 | 
[V:4] F,,4B,,4- | 
[V:1] D4D4 | 
[V:2] D8 | 
[V:3] F4G4 | 
[V:4] B,,4B,,4 | 
[V:1] C8 | 
[V:2] E8 | 
[V:3] A8 | 
[V:4] A,,8 | 
[V:1] C4F4- | 
[V:2] E4F4- | 
[V:3] z4A4 | 
[V:4] A,,4D,4- | 
[V:1] F4F4 | 
[V:2] F4F4 | 
[V:3] A4=B4 | 
[V:4] D,4D,4 | 
[V:1] E8 | 
[V:2] G8 | 
[V:3] c8 | 
[V:4] C,8 | 
[V:1] E4A4- | 
[V:2] G4A4- | 
[V:3] z4c4 | 
[V:4] C,4F,4- | 
[V:1] A8 | 
[V:2] A4A4 | 
[V:3] c4d4 | 
[V:4] F,4F,4 | 
[V:1] G4F4- | 
[V:2] =B2c2d4- | 
[V:3] e4A4 | 
[V:4] E,4D,4- | 
[V:1] F4E4- | 
[V:2] d4G4 | 
[V:3] =B4c4- | 
[V:4] D,4C,4- | 
[V:1] E4D4 | 
[V:2] A4D4 | 
[V:3] c4d4 | 
[V:4] C,4B,,4 | 
[V:1] E4D4 | 
[V:2] A4G4 | 
[V:3] c4d4- | 
[V:4] A,,4B,,4 | 
[V:1] E8 | 
[V:2] A8 | 
[V:3] d2^c=B^c4 | 
[V:4] A,,8 | 
[V:1] D8 ||  
[V:2] A8 ||  
[V:3] d8 ||  
[V:4] D,8 ||  
[V:1] [M:2/1]C8- | 
[V:2] [M:2/1]F8- | 
[V:3] [M:2/1]A8- | 
[V:4] [M:2/1]F,8- | 
[V:1] C8 | 
[V:2] F8- | 
[V:3] A8 | 
[V:4] F,8 | 
[V:1] D8- | 
[V:2] F8- | 
[V:3] B8- | 
[V:4] B,,8- | 
[V:1] D8 | 
[V:2] F8 | 
[V:3] B8 | 
[V:4] B,,8 | 
[V:1] A,8- | 
[V:2] f8- | 
[V:3] F8- | 
[V:4] D,8- | 
[V:1] A,4A,4 | 
[V:2] f4f4 | 
[V:3] F4F4 | 
[V:4] D,4D,4 | 
[V:1] !fermata!A,8 | 
[V:2] !fermata!f8 | 
[V:3] !fermata!F8 | 
[V:4] !fermata!D,8 | 
[V:1] C8 | 
[V:2] e8 | 
[V:3] G8 | 
[V:4] C,8 | 
[V:1] C8 | 
[V:2] A8 | 
[V:3] F8- | 
[V:4] F,8 | 
[V:1] D6E2 | 
[V:2] d8- | 
[V:3] F4B4- | 
[V:4] B,,8- | 
[V:1] F8 | 
[V:2] d8 | 
[V:3] B4A4 | 
[V:4] B,,8 | 
[V:1] !fermata!F8 | 
[V:2] !fermata!c8 | 
[V:3] !fermata!A8 | 
[V:4] !fermata!F,8 | 
[V:1] F8 | 
[V:2] d8 | 
[V:3] z8 | 
[V:4] z8 | 
[V:1] E4D4 | 
[V:2] A4=B4 | 
[V:3] z8 | 
[V:4] z8 | 
[V:1] E8 | 
[V:2] c8 | 
[V:3] z8 | 
[V:4] A,,8 | 
[V:1] D4C2=B,2 | 
[V:2] d4A2=B2 | 
[V:3] F8- | 
[V:4] B,,4A,,2G,,2 | 
[V:1] A,6=B,2 | 
[V:2] c6=B2 | 
[V:3] F8 | 
[V:4] F,,6G,,2 | 
[V:1] C4D4- | 
[V:2] A4G4 | 
[V:3] E4D4 | 
[V:4] A,,4B,,4 | 
[V:1] D4^C4 | 
[V:2] A8 | 
[V:3] E8 | 
[V:4] A,,8 | 
[V:1] D8- | 
[V:2] F8 | 
[V:3] D8 | 
[V:4] B,,8 | 
[V:1] D8 | 
[V:2] B8 | 
[V:3] G8 | 
[V:4] G,,8 | 
[V:1] F8 | 
[V:2] A8- | 
[V:3] F8- | 
[V:4] D,8- | 
[V:1] F8 | 
[V:2] A8 | 
[V:3] F4D4 | 
[V:4] D,8 | 
[V:1] F8 | 
[V:2] B8 | 
[V:3] d8 | 
[V:4] B,,8 | 
[V:1] E4G4- | 
[V:2] G8 | 
[V:3] c8 | 
[V:4] C,8 | 
[V:1] G2F2E4 | 
[V:2] E6F2 | 
[V:3] G6A2 | 
[V:4] C,4C,4 | 
[V:1] D4C4 | 
[V:2] G4F4 | 
[V:3] =B4c4- | 
[V:4] G,,4A,,4 | 
[V:1] D8 | 
[V:2] G8- | 
[V:3] c4=B4 | 
[V:4] G,,8 | 
[V:1] E8- | 
[V:2] G4c4- | 
[V:3] c6=B2 | 
[V:4] C,8- | 
[V:1] E8 | 
[V:2] c4d4 | 
[V:3] A4G4 | 
[V:4] C,8- | 
[V:1] z8 | 
[V:2] e8 | 
[V:3] c8 | 
[V:4] C,8 | 
[V:1] A,8 | 
[V:2] f8 | 
[V:3] F8 | 
[V:4] D,8 | 
[V:1] A,4A,4- | 
[V:2] f4f4- | 
[V:3] F4F4- | 
[V:4] D,4D,4- | 
[V:1] A,4A,4 | 
[V:2] f4f4 | 
[V:3] F4F4 | 
[V:4] D,4D,4 | 
[V:1] =B,8 | 
[V:2] d6e2 | 
[V:3] G8 | 
[V:4] G,,8 | 
[V:1] A,8 | 
[V:2] f8 | 
[V:3] F6G2 | 
[V:4] D,8- | 
[V:1] A,4D4- | 
[V:2] z4F4 | 
[V:3] A4B4- | 
[V:4] D,8 | 
[V:1] D4C4 | 
[V:2] F6G2 | 
[V:3] B4A4 | 
[V:4] B,,4F,4- | 
[V:1] D4F4- | 
[V:2] A4=B4 | 
[V:3] F8 | 
[V:4] F,2E,2D,4 | 
[V:1] F4E4 | 
[V:2] c8 | 
[V:3] G8- | 
[V:4] C,8 | 
[V:1] D8 | 
[V:2] =B8 | 
[V:3] G8- | 
[V:4] G,,8 | 
[V:1] E8 | 
[V:2] c8- | 
[V:3] G8 | 
[V:4] C,8- | 
[V:1] z8 | 
[V:2] c8 | 
[V:3] E8 | 
[V:4] C,8 | 
[V:1] C8 | 
[V:2] A8 | 
[V:3] F8 | 
[V:4] F,,8 | 
[V:1] D4C4 | 
[V:2] F4A4- | 
[V:3] D4E4 | 
[V:4] B,,4A,,4 | 
[V:1] D8 | 
[V:2] A4=B4 | 
[V:3] F8 | 
[V:4] D,8 | 
[V:1] E8- | 
[V:2] c8- | 
[V:3] G8- | 
[V:4] C,8- | 
[V:1] E8 | 
[V:2] c8 | 
[V:3] G8 | 
[V:4] C,8 | 
[V:1] C4D4- | 
[V:2] A4B4 | 
[V:3] F8 | 
[V:4] F,,4B,,4- | 
[V:1] D4C4 | 
[V:2] F4A4 | 
[V:3] D4E4 | 
[V:4] B,,4A,,4 | 
[V:1] D4E4 | 
[V:2] =B4c4- | 
[V:3] F4G4 | 
[V:4] D,4C,4 | 
[V:1] F8- | 
[V:2] c4F4- | 
[V:3] A8 | 
[V:4] F,6E,2 | 
[V:1] F8 | 
[V:2] F2G2A2=B2 | 
[V:3] F8 | 
[V:4] D,8 | 
[V:1] E8 | 
[V:2] c8 | 
[V:3] G8 | 
[V:4] C,8 | 
[V:1] E4E4 | 
[V:2] c4c4 | 
[V:3] A4A4 | 
[V:4] A,,4A,,4 | 
[V:1] E4F4- | 
[V:2] c4F4- | 
[V:3] A4A4- | 
[V:4] A,,4D,4- | 
[V:1] F4E4 | 
[V:2] F4c4 | 
[V:3] A4A4 | 
[V:4] D,4A,,4 | 
[V:1] F4G4- | 
[V:2] d4=B4 | 
[V:3] A4G4 | 
[V:4] D,4G,,4 | 
[V:1] G2F2E4- | 
[V:2] c8 | 
[V:3] E6F2 | 
[V:4] C,6D,2 | 
[V:1] E4D4 | 
[V:2] =B4A4 | 
[V:3] G4A4 | 
[V:4] E,4F,4 | 
[V:1] E8 | 
[V:2] =B8- | 
[V:3] G8- | 
[V:4] E,8- | 
[V:1] E8- | 
[V:2] B4c4 | 
[V:3] G4A4 | 
[V:4] E,4A,,4 | 
[V:1] E8 ||  
[V:2] c8 ||  
[V:3] A8 ||  
[V:4] A,,8 ||  
[V:1] [M:2/1]F8- | 
[V:2] [M:2/1]A8- | 
[V:3] [M:2/1]F8- | 
[V:4] [M:2/1]D,8- | 
[V:1] F8 | 
[V:2] A8 | 
[V:3] F8 | 
[V:4] D,8 | 
[V:1] E8- | 
[V:2] c8- | 
[V:3] G8 | 
[V:4] C,8 | 
[V:1] E8 | 
[V:2] c8 | 
[V:3] A8 | 
[V:4] A,,8 | 
[V:1] D8- | 
[V:2] F8- | 
[V:3] D8- | 
[V:4] B,,8- | 
[V:1] D4D4 | 
[V:2] F4F4 | 
[V:3] D4D4 | 
[V:4] B,,4B,,4 | 
[V:1] !fermata!D8 | 
[V:2] !fermata!B8 | 
[V:3] !fermata!F8 | 
[V:4] !fermata!B,,8 | 
[V:1] D8 | 
[V:2] B8 | 
[V:3] G8- | 
[V:4] G,,8 | 
[V:1] E8 | 
[V:2] c8 | 
[V:3] G8 | 
[V:4] C,8- | 
[V:1] E4D4 | 
[V:2] C8- | 
[V:3] E8- | 
[V:4] C,4B,,4 | 
[V:1] C8 | 
[V:2] C8 | 
[V:3] E4F4 | 
[V:4] A,,8 | 
[V:1] !fermata!=B,8- | 
[V:2] !fermata!D8- | 
[V:3] G8 | 
[V:4] !fermata!G,,8- | 
[V:1] B,8 | 
[V:2] D8 | 
[V:3] !fermata!G8 | 
[V:4] G,,8 | 
[V:1] C8 | 
[V:2] A8 | 
[V:3] E8 | 
[V:4] A,,8 | 
[V:1] D4A,4 | 
[V:2] A4A4 | 
[V:3] F4A4 | 
[V:4] D,4F,4 | 
[V:1] =B,8 | 
[V:2] e8 | 
[V:3] G8 | 
[V:4] E,8 | 
[V:1] A,4E4- | 
[V:2] e8 | 
[V:3] A4G4- | 
[V:4] A,,4C,4- | 
[V:1] E4E4 | 
[V:2] c6=B2 | 
[V:3] G4G4 | 
[V:4] C,4C,4 | 
[V:1] E8 | 
[V:2] A4G4 | 
[V:3] c8 | 
[V:4] C,8 | 
[V:1] F8 | 
[V:2] F8 | 
[V:3] A8 | 
[V:4] D,8 | 
[V:1] E6D2 | 
[V:2] A8- | 
[V:3] c8- | 
[V:4] A,,6B,,2 | 
[V:1] E2F2G4- | 
[V:2] A4G4 | 
[V:3] c4=B4 | 
[V:4] C,2D,2E,4 | 
[V:1] G4A4 | 
[V:2] E4e4- | 
[V:3] c8- | 
[V:4] C,6D,2 | 
[V:1] G4A4- | 
[V:2] e4d4 | 
[V:3] c4A4 | 
[V:4] E,4F,4 | 
[V:1] A2^G^FG4 | 
[V:2] e8 | 
[V:3] =B8 | 
[V:4] E,8 | 
[V:1] A8- | 
[V:2] c8 | 
[V:3] A8- | 
[V:4] F,8- | 
[V:1] A8 | 
[V:2] f8- | 
[V:3] A8 | 
[V:4] F,4D,4 | 
[V:1] z8 | 
[V:2] f8 | 
[V:3] d8 | 
[V:4] D,8 | 
[V:1] G8 | 
[V:2] e8 | 
[V:3] =B8 | 
[V:4] E,8 | 
[V:1] G4G4- | 
[V:2] e4e4- | 
[V:3] =B4c4- | 
[V:4] E,4C,4- | 
[V:1] G4F4- | 
[V:2] e4d4- | 
[V:3] c4A4- | 
[V:4] C,4D,4- | 
[V:1] F4E4 | 
[V:2] d4c4 | 
[V:3] A4A4 | 
[V:4] D,4A,,4 | 
[V:1] F4D4 | 
[V:2] A4=B4 | 
[V:3] F4G4 | 
[V:4] D,4=B,,4 | 
[V:1] E8 | 
[V:2] c8 | 
[V:3] A8 | 
[V:4] A,,8 | 
[V:1] G8- | 
[V:2] e8- | 
[V:3] =B8- | 
[V:4] E,8- | 
[V:1] G4G4 | 
[V:2] e4e4 | 
[V:3] B4=B4 | 
[V:4] E,4E,4 | 
[V:1] G8- | 
[V:2] e8 | 
[V:3] =B8 | 
[V:4] E,8 | 
[V:1] G8 | 
[V:2] E6F2 | 
[V:3] e8- | 
[V:4] C,6D,2 | 
[V:1] z8 | 
[V:2] G8 | 
[V:3] e8 | 
[V:4] E,8 | 
[V:1] A8 | 
[V:2] F4A4- | 
[V:3] c8 | 
[V:4] F,8 | 
[V:1] F4G4- | 
[V:2] A2=B2c4 | 
[V:3] d4e4- | 
[V:4] D,4C,4- | 
[V:1] G2F2E2D2 | 
[V:2] G8 | 
[V:3] e2d2c2=B2 | 
[V:4] C,2D,2E,4 | 
[V:1] E8- | 
[V:2] A8- | 
[V:3] c8- | 
[V:4] A,,8- | 
[V:1] E8 | 
[V:2] A8 | 
[V:3] c8 | 
[V:4] A,,8 | 
[V:1] F8 | 
[V:2] D4F4- | 
[V:3] A8 | 
[V:4] D,8 | 
[V:1] D4E4- | 
[V:2] F2G2A4 | 
[V:3] =B4c4- | 
[V:4] =B,,4A,,4- | 
[V:1] E2D2C2=B,2 | 
[V:2] E8 | 
[V:3] c2=B2A2G2 | 
[V:4] A,,2=B,,2C,4 | 
[V:1] C8- | 
[V:2] F8- | 
[V:3] A8- | 
[V:4] F,,8 | 
[V:1] C8 | 
[V:2] F8 | 
[V:3] A8 | 
[V:4] F,8 | 
[V:1] D8 | 
[V:2] f8 | 
[V:3] F8 | 
[V:4] D,8 | 
[V:1] =B,4C4- | 
[V:2] e8 | 
[V:3] G4A4- | 
[V:4] E,2D,2C,2=B,,2 | 
[V:1] C2=B,2A,2G,2 | 
[V:2] c4f4- | 
[V:3] A2G2F2E2 | 
[V:4] A,,4D,4- | 
[V:1] A,8 | 
[V:2] f4e4 | 
[V:3] D4E4 | 
[V:4] D,4C,4 | 
[V:1] A,8- | 
[V:2] d8 | 
[V:3] F8 | 
[V:4] D,8 | 
[V:1] A,8 ||  
[V:2] c8 ||  
[V:3] E8 ||  
[V:4] A,,8 ||  
[V:1] [M:2/1]E8- | 
[V:2] [M:2/1]c8- | 
[V:3] [M:2/1]A8- | 
[V:4] [M:2/1]A,,8- | 
[V:1] E8 | 
[V:2] c8 | 
[V:3] A8 | 
[V:4] A,,8 | 
[V:1] F8- | 
[V:2] d8- | 
[V:3] A8- | 
[V:4] D,8- | 
[V:1] F4E4 | 
[V:2] d4c4 | 
[V:3] A4A4 | 
[V:4] D,4A,,4 | 
[V:1] F8 | 
[V:2] d8 | 
[V:3] A8 | 
[V:4] D,8 | 
[V:1] E8 | 
[V:2] G8- | 
[V:3] c8 | 
[V:4] C,8 | 
[V:1] G4F2E2 | 
[V:2] G4G4 | 
[V:3] B8 | 
[V:4] G,,8 | 
[V:1] D8 | 
[V:2] G8 | 
[V:3] B8 | 
[V:4] G,,8 | 
[V:1] !fermata!C8 | 
[V:2] !fermata!E8 | 
[V:3] !fermata!A8 | 
[V:4] !fermata!A,,8 | 
[V:1] C8 | 
[V:2] z8 | 
[V:3] A8 | 
[V:4] z8 | 
[V:1] C4D4 | 
[V:2] z8 | 
[V:3] A4G4- | 
[V:4] z8 | 
[V:1] E4F4- | 
[V:2] c4=B4 | 
[V:3] G4F4 | 
[V:4] C,4D,4 | 
[V:1] F4E4 | 
[V:2] c8 | 
[V:3] G8 | 
[V:4] C,8 | 
[V:1] F4D4 | 
[V:2] A8- | 
[V:3] F8- | 
[V:4] F,,8- | 
[V:1] C8 | 
[V:2] A8 | 
[V:3] F8 | 
[V:4] F,,8 | 
[V:1] A8- | 
[V:2] A8 | 
[V:3] c8 | 
[V:4] F,8 | 
[V:1] A4G4- | 
[V:2] A4=B4 | 
[V:3] d4e4- | 
[V:4] F,4E,4 | 
[V:1] G4F4 | 
[V:2] c4A2=B2 | 
[V:3] e4f4- | 
[V:4] C,4D,4 | 
[V:1] G8 | 
[V:2] c8 | 
[V:3] f2d2e4 | 
[V:4] C,8 | 
[V:1] F8 | 
[V:2] F6G2 | 
[V:3] f4d4 | 
[V:4] D,6E,2 | 
[V:1] z8 | 
[V:2] A8 | 
[V:3] c8 | 
[V:4] F,8 | 
[V:1] A4A4 | 
[V:2] A4A4 | 
[V:3] c4c4 | 
[V:4] F,4F,4 | 
[V:1] A4G4- | 
[V:2] A4c4- | 
[V:3] d4e4- | 
[V:4] F,4C,4- | 
[V:1] G4F4 | 
[V:2] c4F4 | 
[V:3] e4f4 | 
[V:4] C,4D,4 | 
[V:1] G8- | 
[V:2] c8- | 
[V:3] e6d2 | 
[V:4] C,8- | 
[V:1] G4A4 | 
[V:2] c4c4 | 
[V:3] e4f4 | 
[V:4] C,4F,4 | 
[V:1] !fermata!A8 | 
[V:2] !fermata!c8 | 
[V:3] !fermata!f8 | 
[V:4] !fermata!F,8 | 
[V:1] G6G2 | 
[V:2] c6c2 | 
[V:3] e6e2 | 
[V:4] C,6C,2 | 
[V:1] G4E4 | 
[V:2] c4c4 | 
[V:3] e4e4 | 
[V:4] C,4C,4 | 
[V:1] F3EF2G2 | 
[V:2] A6G2 | 
[V:3] d6=B2 | 
[V:4] D,3C,D,2E,2 | 
[V:1] E4G4 | 
[V:2] G4E4 | 
[V:3] c2=B2G4 | 
[V:4] C,8 | 
[V:1] F2E2D4 | 
[V:2] F4G4 | 
[V:3] A4B4 | 
[V:4] z4G,,4 | 
[V:1] C8 | 
[V:2] C6D2 | 
[V:3] A8 | 
[V:4] A,,4A,,2B,,2 | 
[V:1] z8 | 
[V:2] E8 | 
[V:3] G8 | 
[V:4] C,8 | 
[V:1] C8 | 
[V:2] z4F4- | 
[V:3] A8 | 
[V:4] F,8 | 
[V:1] D4E4- | 
[V:2] F4G4 | 
[V:3] =B4c4- | 
[V:4] D,4C,4- | 
[V:1] E2E2E4 | 
[V:2] A4G4 | 
[V:3] c2c2c4 | 
[V:4] C,2C,2C,4 | 
[V:1] F4E4 | 
[V:2] B4G4 | 
[V:3] d4c4 | 
[V:4] B,,4C,4 | 
[V:1] D8 | 
[V:2] B4A4 | 
[V:3] f8 | 
[V:4] D,8 | 
[V:1] C8 | 
[V:2] A8 | 
[V:3] e8- | 
[V:4] A,,8- | 
[V:1] z4C4 | 
[V:2] z4A4 | 
[V:3] e8 | 
[V:4] A,,8 | 
[V:1] D4C4 | 
[V:2] B4A4 | 
[V:3] z8 | 
[V:4] z8 | 
[V:1] D4A,4 | 
[V:2] F8 | 
[V:3] z8 | 
[V:4] z8 | 
[V:1] B,8 | 
[V:2] G8 | 
[V:3] z8 | 
[V:4] z8 | 
[V:1] A,4C4 | 
[V:2] A8 | 
[V:3] z4A4 | 
[V:4] z4F,4 | 
[V:1] D4C4 | 
[V:2] z4A4- | 
[V:3] B4A4 | 
[V:4] B,,4F,4 | 
[V:1] D4F4- | 
[V:2] A4=B4 | 
[V:3] F8 | 
[V:4] D,8 | 
[V:1] F4E4 | 
[V:2] c8 | 
[V:3] G8 | 
[V:4] C,8 | 
[V:1] F8 ||  
[V:2] c8 ||  
[V:3] F8 ||  
[V:4] F,,8 ||  
[V:1]  [K:C] [M:2/1]A8- | 
[V:2]  [K:C] [M:2/1]c8- | 
[V:3]  [K:C] [M:2/1]F8- | 
[V:4]  [K:C] [M:2/1]F,8- | 
[V:1] A8- | 
[V:2] c8 | 
[V:3] F8 | 
[V:4] F,8 | 
[V:1] A8 | 
[V:2] d8 | 
[V:3] f8 | 
[V:4] D,8 | 
[V:1] G6F2 | 
[V:2] B8- | 
[V:3] e8- | 
[V:4] E,6D,2 | 
[V:1] G4A4 | 
[V:2] B4A4 | 
[V:3] e4c4 | 
[V:4] E,4F,4 | 
[V:1] F6E2 | 
[V:2] A8- | 
[V:3] d8- | 
[V:4] D,6C,2 | 
[V:1] F4G4 | 
[V:2] A4G4 | 
[V:3] d4B4 | 
[V:4] D,4E,4 | 
[V:1] E6D2 | 
[V:2] G8- | 
[V:3] c8- | 
[V:4] C,6B,,2 | 
[V:1] E4F4 | 
[V:2] G4F4 | 
[V:3] c4A4 | 
[V:4] C,4D,4 | 
[V:1] D8 | 
[V:2] G8 | 
[V:3] B6G2 | 
[V:4] G,,8 | 
[V:1] E8- | 
[V:2] E6F2 | 
[V:3] G8 | 
[V:4] C,8- | 
[V:1] E8- | 
[V:2] G4A4 | 
[V:3] c8- | 
[V:4] C,8- | 
[V:1] E8 | 
[V:2] G8 | 
[V:3] c8 | 
[V:4] C,8 | 
[V:1] E8 | 
[V:2] A8 | 
[V:3] c8 | 
[V:4] A,,8 | 
[V:1] E4F4- | 
[V:2] G4F4 | 
[V:3] c4A4 | 
[V:4] C,4D,4 | 
[V:1] F4E2D2 | 
[V:2] D8 | 
[V:3] d8 | 
[V:4] B,,8 | 
[V:1] E8 | 
[V:2] A8 | 
[V:3] c4d2e2 | 
[V:4] A,,8 | 
[V:1] D8 | 
[V:2] A4A4 | 
[V:3] f8 | 
[V:4] D,8 | 
[V:1] D4G4- | 
[V:2] B4G4 | 
[V:3] f4e4- | 
[V:4] B,,4C,4- | 
[V:1] G4G4 | 
[V:2] c6B2 | 
[V:3] e4e4 | 
[V:4] C,4C,4 | 
[V:1] F6E2 | 
[V:2] A8- | 
[V:3] d6c2 | 
[V:4] D,6A,,2 | 
[V:1] F4G4 | 
[V:2] A4G4 | 
[V:3] d4B4 | 
[V:4] D,4E,4 | 
[V:1] E8- | 
[V:2] A8- | 
[V:3] c8- | 
[V:4] A,,8- | 
[V:1] E8 | 
[V:2] A8 | 
[V:3] c8- | 
[V:4] A,,8 | 
[V:1] z8 | 
[V:2] A8 | 
[V:3] c8 | 
[V:4] F,8 | 
[V:1] D8 | 
[V:2] B4d4 | 
[V:3] z8 | 
[V:4] G,6F,2 | 
[V:1] E4G4 | 
[V:2] c6B2 | 
[V:3] G8 | 
[V:4] E,8 | 
[V:1] F6E2 | 
[V:2] d8 | 
[V:3] A8 | 
[V:4] D,8 | 
[V:1] G8 | 
[V:2] z4B4 | 
[V:3] G8 | 
[V:4] E,8 | 
[V:1] z4E4 | 
[V:2] c4e4 | 
[V:3] c8 | 
[V:4] C,8 | 
[V:1] F4A4 | 
[V:2] d6c2 | 
[V:3] A4A4 | 
[V:4] D,4F,4 | 
[V:1] ^G6^F2 | 
[V:2] e8 | 
[V:3] B8 | 
[V:4] E,8 | 
[V:1] A8 | 
[V:2] z4c4 | 
[V:3] A8- | 
[V:4] A,,8 | 
[V:1] z4F4 | 
[V:2] d4f4- | 
[V:3] A8 | 
[V:4] D,8 | 
[V:1] G4_B4- | 
[V:2] f2e2e4- | 
[V:3] G8 | 
[V:4] E,4G,4 | 
[V:1] B2A2A4- | 
[V:2] e4d4 | 
[V:3] c4A4 | 
[V:4] F,8 | 
[V:1] A4^G4 | 
[V:2] e8- | 
[V:3] B8 | 
[V:4] E,8 | 
[V:1] A8- | 
[V:2] e4c4 | 
[V:3] A8- | 
[V:4] z8 | 
[V:1] A8 | 
[V:2] c8- | 
[V:3] A8- | 
[V:4] A,,6A,,2 | 
[V:1] z8 | 
[V:2] c8 | 
[V:3] A8 | 
[V:4] A,,4A,,4 | 
[V:1] D6D2 | 
[V:2] z8 | 
[V:3] z8 | 
[V:4] B,,4G,,4 | 
[V:1] D4D4 | 
[V:2] z8 | 
[V:3] z8 | 
[V:4] B,,8 | 
[V:1] E4C4 | 
[V:2] c6c2 | 
[V:3] z8 | 
[V:4] A,,8- | 
[V:1] E8 | 
[V:2] c4c4 | 
[V:3] z8 | 
[V:4] A,,8 | 
[V:1] D8- | 
[V:2] d4B4 | 
[V:3] D6D2 | 
[V:4] B,,8- | 
[V:1] D8 | 
[V:2] d8 | 
[V:3] D4D4 | 
[V:4] B,,8 | 
[V:1] z8 | 
[V:2] c8- | 
[V:3] E4C4 | 
[V:4] A,,8- | 
[V:1] z8 | 
[V:2] c8 | 
[V:3] E8 | 
[V:4] A,,8 | 
[V:1] D8 | 
[V:2] d4A4 | 
[V:3] D8 | 
[V:4] z8 | 
[V:1] D4C4 | 
[V:2] B4A4 | 
[V:3] G4A4 | 
[V:4] z8 | 
[V:1] D4E4 | 
[V:2] G6F2 | 
[V:3] B8 | 
[V:4] z8 | 
[V:1] F8 | 
[V:2] D8 | 
[V:3] A8- | 
[V:4] z8 | 
[V:1] F4F4- | 
[V:2] z4F4 | 
[V:3] A8- | 
[V:4] D,8 | 
[V:1] F4E4 | 
[V:2] D4E4 | 
[V:3] A8 | 
[V:4] D,4C,4 | 
[V:1] D8 | 
[V:2] F4G4 | 
[V:3] z8 | 
[V:4] D,6E,2 | 
[V:1] C8 | 
[V:2] A4c4- | 
[V:3] z8 | 
[V:4] F,8 | 
[V:1] z8 | 
[V:2] c4c4 | 
[V:3] A8 | 
[V:4] F,4F,4- | 
[V:1] z8 | 
[V:2] c8 | 
[V:3] A4G4 | 
[V:4] F,4E,4 | 
[V:1] F8 | 
[V:2] d8 | 
[V:3] A4B4 | 
[V:4] D,8 | 
[V:1] E8 | 
[V:2] G8- | 
[V:3] c8 | 
[V:4] C,8 | 
[V:1] E6D2 | 
[V:2] G8 | 
[V:3] c4c4- | 
[V:4] C,6B,,2 | 
[V:1] E4G4- | 
[V:2] z4d4- | 
[V:3] c4B4 | 
[V:4] A,,4G,,4 | 
[V:1] G4^F4 | 
[V:2] d8 | 
[V:3] A8 | 
[V:4] D,8 | 
[V:1] G6F2 | 
[V:2] B8- | 
[V:3] G8- | 
[V:4] G,,8- | 
[V:1] G4E4 | 
[V:2] B8 | 
[V:3] G8 | 
[V:4] G,,8 | 
[V:1] D8 | 
[V:2] z4G4 | 
[V:3] z8 | 
[V:4] G,8 | 
[V:1] z8 | 
[V:2] A4c4- | 
[V:3] z8 | 
[V:4] F,4E,4 | 
[V:1] z8 | 
[V:2] c2A2B4 | 
[V:3] z8 | 
[V:4] D,8 | 
[V:1] G8 | 
[V:2] c8- | 
[V:3] z4G4 | 
[V:4] C,8 | 
[V:1] F4E4 | 
[V:2] c8 | 
[V:3] A4c4- | 
[V:4] z4C,4 | 
[V:1] D8 | 
[V:2] z8 | 
[V:3] c2A2B4 | 
[V:4] F,4G,4 | 
[V:1] C8- | 
[V:2] z8 | 
[V:3] c3BAGA2- | 
[V:4] A,8 | 
[V:1] C8 | 
[V:2] z4C4 | 
[V:3] A2F2E4 | 
[V:4] A,,8 | 
[V:1] D8 | 
[V:2] F4G4 | 
[V:3] z4D4 | 
[V:4] B,,8 | 
[V:1] z4C4 | 
[V:2] A6F2 | 
[V:3] E6F2- | 
[V:4] A,,8 | 
[V:1] F4G4 | 
[V:2] F4c4- | 
[V:3] F2EDE4 | 
[V:4] D,4C,4 | 
[V:1] A6F2 | 
[V:2] c8 | 
[V:3] z4A4- | 
[V:4] F,6E,2 | 
[V:1] F4G4- | 
[V:2] d4B4 | 
[V:3] A4G4 | 
[V:4] D,4E,4 | 
[V:1] G2F2E4- | 
[V:2] c8 | 
[V:3] A4E4 | 
[V:4] C,8 | 
[V:1] E4D4 | 
[V:2] A8- | 
[V:3] F8 | 
[V:4] D,8 | 
[V:1] E8- | 
[V:2] A8- | 
[V:3] E8- | 
[V:4] z4A,,4- | 
[V:1] E4C4 | 
[V:2] A8 | 
[V:3] E8 | 
[V:4] A,,4A,,4 | 
[V:1] D6C2 | 
[V:2] z4D4- | 
[V:3] z8 | 
[V:4] B,,6C,2 | 
[V:1] A,8 | 
[V:2] D4D4 | 
[V:3] z4A4- | 
[V:4] D,8 | 
[V:1] z8 | 
[V:2] E6F2 | 
[V:3] A4A4 | 
[V:4] C,6B,,2 | 
[V:1] z4D4- | 
[V:2] G8- | 
[V:3] B6c2 | 
[V:4] G,,8- | 
[V:1] D4D4 | 
[V:2] G8 | 
[V:3] d4B4 | 
[V:4] G,,8 | 
[V:1] E6F2 | 
[V:2] z4G4- | 
[V:3] c8 | 
[V:4] C,6D,2 | 
[V:1] G8- | 
[V:2] G4G4 | 
[V:3] B8- | 
[V:4] E,8 | 
[V:1] G8 | 
[V:2] G6AB | 
[V:3] B4B4 | 
[V:4] E,8 | 
[V:1] A8 | 
[V:2] c4f4 | 
[V:3] A4d4 | 
[V:4] z4D,4 | 
[V:1] G8 | 
[V:2] e4d4 | 
[V:3] c4B4 | 
[V:4] E,4G,4 | 
[V:1] A4A4- | 
[V:2] f8 | 
[V:3] c4d4 | 
[V:4] F,4D,4 | 
[V:1] A4^G4 | 
[V:2] e8 | 
[V:3] B8 | 
[V:4] E,8 | 
[V:1] A8- | 
[V:2] c6d2 | 
[V:3] A8- | 
[V:4] A,,8 | 
[V:1] A8 | 
[V:2] e4f4 | 
[V:3] A8 | 
[V:4] z4D,4 | 
[V:1] z8 | 
[V:2] e4c4 | 
[V:3] z4A4 | 
[V:4] E,4F,4 | 
[V:1] D4E4 | 
[V:2] z4G4 | 
[V:3] B4c4 | 
[V:4] G,6F,2 | 
[V:1] F4G4- | 
[V:2] A4G4 | 
[V:3] d2c2B2A2 | 
[V:4] D,4E,4- | 
[V:1] G2F2E2D2 | 
[V:2] B4c4- | 
[V:3] G4A4- | 
[V:4] E,2D,2C,2B,,2 | 
[V:1] C4D4- | 
[V:2] c2B2G4 | 
[V:3] A4D4 | 
[V:4] A,,4B,,4 | 
[V:1] D4^C4 | 
[V:2] A8 | 
[V:3] E8 | 
[V:4] A,,8 | 
[V:1] D8- | 
[V:2] F8- | 
[V:3] D8- | 
[V:4] A,8- | 
[V:1] D8 | 
[V:2] F8 | 
[V:3] D8 | 
[V:4] A,8 | 
[V:1] z8 | 
[V:2] f8 | 
[V:3] d8 | 
[V:4] D,6E,2 | 
[V:1] A8 | 
[V:2] z4f4 | 
[V:3] c4d4 | 
[V:4] F,4D,4 | 
[V:1] G4A4 | 
[V:2] e4A4 | 
[V:3] B2c4d2- | 
[V:4] E,4F,4 | 
[V:1] F2A2G2A2- | 
[V:2] d4e2c2 | 
[V:3] dcA2B2A2 | 
[V:4] D,2F,2E,2F,2 | 
[V:1] AGFEF2G2- | 
[V:2] d3cd2B2 | 
[V:3] F2A4G2 | 
[V:4] D,6E,2 | 
[V:1] GFEDE2F2- | 
[V:2] c3Bc2A2 | 
[V:3] E2G4F2 | 
[V:4] C,6D,2 | 
[V:1] FEDCD2E2- | 
[V:2] B3AB2G2 | 
[V:3] D2F4E2 | 
[V:4] B,,6C,2 | 
[V:1] ED^CB,C4 | 
[V:2] A2G2A4 | 
[V:3] F2D2E4 | 
[V:4] A,,2B,,2A,,4 | 
[V:1] z4D4 | 
[V:2] A8- | 
[V:3] D8- | 
[V:4] D,8- | 
[V:1] D8 |]  
[V:2] A8 |]  
[V:3] D8 |]  
[V:4] D,8 |]  



